src/icons/warning.svg

<svg viewBox="0 0 40 40" fill="none" xmlns="http://www.w3.org/2000/svg">
<circle opacity="0.4" cx="20" cy="20" r="20" fill="currentColor"/>
<path d="M20.0532 23.3799C21.0101 23.3799 21.5495 22.7617 21.5843 21.6052L21.7148 16.8096L21.8453 12.014C21.8801 10.8375 21.1145 10 20.0358 10C18.957 10 18.2088 10.8175 18.2436 11.994L18.4872 21.6251C18.522 22.7617 19.0788 23.3799 20.0532 23.3799ZM20.0532 30C21.1841 30 22.1063 29.0628 22.1063 27.8066C22.1063 26.5304 21.1841 25.6132 20.0532 25.6132C18.9222 25.6132 18 26.5504 18 27.8066C18 29.0628 18.9396 30 20.0532 30Z" fill="currentColor"/>
</svg>

<svg viewBox="0 0 40 40" fill="none" xmlns="http://www.w3.org/2000/svg"><circle opacity=".4" cx="20" cy="20" r="20" fill="currentColor"/><path d="M20.053 23.38c.957 0 1.496-.618 1.531-1.775l.13-4.795.131-4.796c.035-1.176-.73-2.014-1.81-2.014-1.078 0-1.826.818-1.791 1.994l.243 9.631c.035 1.137.592 1.755 1.566 1.755zm0 6.62c1.131 0 2.053-.937 2.053-2.193 0-1.277-.922-2.194-2.053-2.194-1.13 0-2.053.937-2.053 2.194 0 1.256.94 2.193 2.053 2.193z" fill="currentColor"/></svg>
